alpha-p-box.svg

<svg fill="currentColor" viewBox="0 0 24 24"><path d="M9 7v10h2v-4h2a2 2 0 0 0 2-2V9a2 2 0 0 0-2-2zm2 2h2v2h-2zM5 3h14a2 2 0 0 1 2 2v14a2 2 0 0 1-2 2H5a2 2 0 0 1-2-2V5a2 2 0 0 1 2-2"/></svg>

<svg  viewBox="0 0 24 24" fill="currentColor"><path  d="M9,7V17H11V13H13A2,2 0 0,0 15,11V9A2,2 0 0,0 13,7H9M11,9H13V11H11V9M5,3H19A2,2 0 0,1 21,5V19A2,2 0 0,1 19,21H5A2,2 0 0,1 3,19V5A2,2 0 0,1 5,3Z"/></svg>
